docs/svg/insta_icon.svg

<svg width="33" height="33" viewBox="0 0 33 33" version="1.1" xmlns="http://www.w3.org/2000/svg" xmlns:xlink="http://www.w3.org/1999/xlink">
<title>insta_icon</title>
<desc>Created using Figma</desc>
<g id="Canvas" transform="translate(-4186 -4934)">
<g id="insta_icon">
<g id="Group">
<g id="Group">
<g id="Vector">
<use xlink:href="#path0_fill" transform="translate(4186 4934)" fill="#FFFFFF"/>
</g>
</g>
</g>
<g id="Group">
<g id="Group">
<g id="Vector">
<use xlink:href="#path1_fill" transform="translate(4195.11 4943.03)" fill="#FFFFFF"/>
</g>
</g>
</g>
<g id="Group">
<g id="Group">
<g id="Vector">
<use xlink:href="#path2_fill" transform="translate(4209.37 4940.83)" fill="#FFFFFF"/>
</g>
</g>
</g>
</g>
</g>
<defs>
<path id="path0_fill" d="M 23.9419 0L 8.8641 0C 3.97645 0 0 3.99996 0 8.91651L 0 24.0835C 0 29 3.97645 33 8.8641 33L 23.9419 33C 28.8296 33 32.806 29 32.806 24.0835L 32.806 8.91651C 32.806 3.99996 28.8296 0 23.9419 0ZM 30.1557 24.0835C 30.1557 27.53 27.3682 30.334 23.9419 30.334L 8.8641 30.334C 5.43786 30.334 2.65037 27.5301 2.65037 24.0835L 2.65037 8.91651C 2.65037 5.47001 5.43779 2.66604 8.8641 2.66604L 23.9419 2.66604C 27.3682 2.66604 30.1557 5.46994 30.1557 8.91651L 30.1557 24.0835Z"/>
<path id="path1_fill" d="M 14.6347 6.31446C 14.4014 4.73233 13.6839 3.29837 12.5596 2.16741C 11.4352 1.03652 10.0097 0.314644 8.43695 0.0800992C 7.72085 -0.0266996 6.99483 -0.0266996 6.2788 0.0800992C 4.33504 0.370074 2.61996 1.40403 1.44939 2.99158C 0.278816 4.57912 -0.207188 6.53025 0.0810826 8.48537C 0.369353 10.4406 1.39723 12.1658 2.97545 13.3433C 4.25668 14.2992 5.77588 14.8012 7.3423 14.8012C 7.70541 14.8012 8.07115 14.7743 8.43688 14.7197C 10.3806 14.4297 12.0957 13.3957 13.2663 11.8082C 14.4369 10.2207 14.9229 8.26964 14.6347 6.31446ZM 8.04814 12.0824C 6.80478 12.2682 5.56398 11.9553 4.55437 11.202C 3.54475 10.4487 2.88722 9.34504 2.70287 8.09433C 2.51847 6.84362 2.82929 5.59548 3.57813 4.57989C 4.32703 3.56431 5.42417 2.90289 6.6676 2.71739C 6.8966 2.68323 7.1272 2.66615 7.35781 2.66615C 7.58841 2.66615 7.81908 2.68323 8.04808 2.71746C 10.1133 3.02548 11.7066 4.62817 12.0129 6.70562C 12.3935 9.28749 10.615 11.6996 8.04814 12.0824Z"/>
<path id="path2_fill" d="M 2.26234 0.390457C 2.01552 0.142248 1.67394 -1.45555e-07 1.32525 -1.45555e-07C 0.976557 -1.45555e-07 0.634977 0.142183 0.388163 0.390457C 0.141413 0.63873 -1.72074e-07 0.98175 -1.72074e-07 1.33308C -1.72074e-07 1.68442 0.141413 2.02744 0.388163 2.27571C 0.634977 2.52392 0.976557 2.66617 1.32525 2.66617C 1.67394 2.66617 2.01552 2.52398 2.26234 2.27571C 2.50909 2.02744 2.6505 1.68384 2.6505 1.33308C 2.6505 0.982265 2.50909 0.638666 2.26234 0.390457Z"/>
</defs>
</svg>

<svg width="33" height="33" viewBox="0 0 33 33" xmlns="http://www.w3.org/2000/svg" xmlns:xlink="http://www.w3.org/1999/xlink"><title>insta_icon</title><desc>Created using Figma</desc><use xlink:href="#a" fill="#FFF"/><use xlink:href="#b" transform="translate(9.11 9.03)" fill="#FFF"/><use xlink:href="#c" transform="translate(23.37 6.83)" fill="#FFF"/><defs><path id="a" d="M23.942 0H8.864C3.976 0 0 4 0 8.917v15.167C0 29 3.976 33 8.864 33h15.078c4.888 0 8.864-4 8.864-8.916V8.917C32.806 4 28.83 0 23.942 0zm6.214 24.084c0 3.446-2.788 6.25-6.214 6.25H8.864c-3.426 0-6.214-2.804-6.214-6.25V8.917c0-3.447 2.788-6.251 6.214-6.251h15.078c3.426 0 6.214 2.804 6.214 6.25v15.168z"/><path id="b" d="M14.635 6.314a7.365 7.365 0 0 0-2.075-4.147A7.29 7.29 0 0 0 8.437.08a7.309 7.309 0 0 0-2.158 0 7.301 7.301 0 0 0-4.83 2.912A7.384 7.384 0 0 0 .081 8.485a7.359 7.359 0 0 0 2.894 4.858 7.273 7.273 0 0 0 5.462 1.377 7.301 7.301 0 0 0 4.83-2.912 7.384 7.384 0 0 0 1.368-5.494zm-6.587 5.768a4.653 4.653 0 0 1-3.494-.88 4.707 4.707 0 0 1-1.851-3.108 4.724 4.724 0 0 1 .875-3.514 4.67 4.67 0 0 1 3.78-1.914 4.693 4.693 0 0 1 4.655 4.04c.38 2.581-1.398 4.994-3.965 5.376z"/><path id="c" d="M2.262.39A1.33 1.33 0 0 0 1.325 0 1.33 1.33 0 0 0 0 1.333a1.33 1.33 0 0 0 1.325 1.333 1.33 1.33 0 0 0 1.326-1.333c0-.35-.142-.694-.389-.943z"/></defs></svg>
